public/images/icon_research.svg

<svg fill="none" height="24" viewBox="0 0 24 24" width="24" xmlns="http://www.w3.org/2000/svg"><path d="m.800049 23.2h-.5v.5h.5zm2.700001-4.8v.5h1v-.5zm20.20005-14.4v-.5h-1v.5zm-23.400051-4v23.2h1.000001v-23.2zm.5 23.7h23.200051v-1h-23.200051zm3.700001-5.3c0-2.3544.39378-4.6799 1.1569-6.3969.77067-1.734 1.84124-2.7031 3.1431-2.7031v-1c-1.89814 0-3.22757 1.43092-4.05691 3.2969-.83687 1.883-1.24309 4.3575-1.24309 6.8031zm4.3-9.1c.62076 0 1.20445.3076 1.81085.8674.61.563 1.182 1.3231 1.7891 2.1326.5929.7905 1.2209 1.6304 1.9109 2.2674.6936.6402 1.5099 1.1326 2.4892 1.1326v-1c-.6208 0-1.2045-.3076-1.8109-.8674-.61-.563-1.182-1.3231-1.7892-2.1326-.5928-.7905-1.2208-1.6304-1.9108-2.2674-.6936-.64021-1.50991-1.1326-2.48915-1.1326zm8.00005 6.4c1.8231 0 3.5625-1.1377 4.8227-3.133 1.2625-1.999 2.0773-4.8979 2.0773-8.567h-1c0 3.5309-.7853 6.232-1.9228 8.033-1.1398 1.8047-2.6004 2.667-3.9772 2.667z" fill="#686868"/></svg>

<svg width="24" height="24" viewBox="0 0 24 24" fill="none" xmlns="http://www.w3.org/2000/svg">
<path d="M0.800049 23.2H0.300049V23.7H0.800049V23.2ZM3.50005 18.4V18.9H4.50005V18.4H3.50005ZM23.7001 4V3.5H22.7001V4H23.7001ZM0.300049 0V23.2H1.30005V0H0.300049ZM0.800049 23.7H24.0001V22.7H0.800049V23.7ZM4.50005 18.4C4.50005 16.0456 4.89383 13.7201 5.65695 12.0031C6.42762 10.2691 7.49819 9.3 8.80005 9.3V8.3C6.90191 8.3 5.57248 9.73092 4.74314 11.5969C3.90627 13.4799 3.50005 15.9544 3.50005 18.4H4.50005ZM8.80005 9.3C9.42081 9.3 10.0045 9.6076 10.6109 10.1674C11.2209 10.7304 11.7929 11.4905 12.4 12.3C12.9929 13.0905 13.6209 13.9304 14.3109 14.5674C15.0045 15.2076 15.8208 15.7 16.8001 15.7V14.7C16.1793 14.7 15.5956 14.3924 14.9892 13.8326C14.3792 13.2696 13.8072 12.5095 13.2 11.7C12.6072 10.9095 11.9792 10.0696 11.2892 9.4326C10.5956 8.79239 9.77929 8.3 8.80005 8.3V9.3ZM16.8001 15.7C18.6232 15.7 20.3626 14.5623 21.6228 12.567C22.8853 10.568 23.7001 7.6691 23.7001 4H22.7001C22.7001 7.5309 21.9148 10.232 20.7773 12.033C19.6375 13.8377 18.1769 14.7 16.8001 14.7V15.7Z" fill="#686868"/>
</svg>
